public/art/nature/flower-bush.svg

<svg xmlns="http://www.w3.org/2000/svg" width="32" height="32" shape-rendering="crispEdges" viewBox="0 -0.5 16 16"><path stroke="#264c1e" d="M7 3h2M6 4h1m2 0h1M2 6h1m10 0h1M1 7h1m12 0h1M3 10h1m8 0h1M2 11h1m10 0h1"/><path stroke="#74c857" d="M7 4h2"/><path stroke="#fff" d="M4 5h2m4 0h2M3 6h1m2 0h1m2 0h1m2 0h1M3 7h1m2 0h1m2 0h1m2 0h1M4 8h2m1 0h2m1 0h2M6 9h1m2 0h1m-4 1h1m2 0h1m-3 1h2"/><path stroke="#49a867" d="M6 5h1m2 0h1M7 6h2M2 7h1m10 0h1M2 8h2m8 0h2M3 11h1m8 0h1"/><path stroke="#bdef6f" d="M7 5h2"/><path stroke="#990005" d="M4 6h1m5 0h1M4 7h1m5 0h1M7 9h1m-1 1h1"/><path stroke="#ee5f64" d="M5 6h1m5 0h1M8 9h1"/><path stroke="#ff0009" d="M5 7h1m5 0h1m-4 3h1"/><path stroke="#498f7b" d="M7 7h2M6 8h1m2 0h1M3 9h3m4 0h3m-9 2h1m6 0h1m-9 1h1m8 0h1"/><path stroke="#193314" d="M1 8h1m12 0h1M2 9h1m10 0h1M4 10h1m6 0h1M2 12h1m3 0h1m2 0h1m3 0h1M2 13h4m1 0h2m1 0h4"/><path stroke="#417579" d="M5 10h1m4 0h1m-6 1h2m2 0h2m-7 1h2m1 0h2m1 0h2"/></svg>

<svg xmlns="http://www.w3.org/2000/svg" width="32" height="32" viewBox="0 -0.5 16 16" shape-rendering="crispEdges">
<path stroke="#264c1e" d="M7 3h2M6 4h1M9 4h1M2 6h1M13 6h1M1 7h1M14 7h1M3 10h1M12 10h1M2 11h1M13 11h1" />
<path stroke="#74c857" d="M7 4h2" />
<path stroke="#ffffff" d="M4 5h2M10 5h2M3 6h1M6 6h1M9 6h1M12 6h1M3 7h1M6 7h1M9 7h1M12 7h1M4 8h2M7 8h2M10 8h2M6 9h1M9 9h1M6 10h1M9 10h1M7 11h2" />
<path stroke="#49a867" d="M6 5h1M9 5h1M7 6h2M2 7h1M13 7h1M2 8h2M12 8h2M3 11h1M12 11h1" />
<path stroke="#bdef6f" d="M7 5h2" />
<path stroke="#990005" d="M4 6h1M10 6h1M4 7h1M10 7h1M7 9h1M7 10h1" />
<path stroke="#ee5f64" d="M5 6h1M11 6h1M8 9h1" />
<path stroke="#ff0009" d="M5 7h1M11 7h1M8 10h1" />
<path stroke="#498f7b" d="M7 7h2M6 8h1M9 8h1M3 9h3M10 9h3M4 11h1M11 11h1M3 12h1M12 12h1" />
<path stroke="#193314" d="M1 8h1M14 8h1M2 9h1M13 9h1M4 10h1M11 10h1M2 12h1M6 12h1M9 12h1M13 12h1M2 13h4M7 13h2M10 13h4" />
<path stroke="#417579" d="M5 10h1M10 10h1M5 11h2M9 11h2M4 12h2M7 12h2M10 12h2" />
</svg>
